src/img/icons/tweeter.svg

<svg viewBox="0 0 24 24" fill="none" xmlns="http://www.w3.org/2000/svg">
<path d="M23.643 4.93708C22.808 5.30708 21.911 5.55708 20.968 5.67008C21.941 5.08787 22.669 4.17154 23.016 3.09208C22.1019 3.63507 21.1014 4.01727 20.058 4.22208C19.3564 3.47294 18.4271 2.9764 17.4143 2.80955C16.4016 2.6427 15.3621 2.81487 14.4572 3.29933C13.5524 3.78379 12.8328 4.55344 12.4102 5.48878C11.9875 6.42412 11.8855 7.47283 12.12 8.47208C10.2677 8.37907 8.45564 7.89763 6.80144 7.05898C5.14723 6.22034 3.68785 5.04324 2.51801 3.60408C2.11801 4.29408 1.88801 5.09408 1.88801 5.94608C1.88757 6.71307 2.07644 7.46832 2.43789 8.14481C2.79934 8.8213 3.32217 9.39812 3.96001 9.82408C3.22029 9.80054 2.49688 9.60066 1.85001 9.24108V9.30108C1.84994 10.3768 2.22204 11.4195 2.90319 12.2521C3.58434 13.0847 4.53258 13.656 5.58701 13.8691C4.9008 14.0548 4.18135 14.0821 3.48301 13.9491C3.78051 14.8747 4.36001 15.6841 5.14038 16.264C5.92075 16.8439 6.86293 17.1653 7.83501 17.1831C6.18484 18.4785 4.1469 19.1812 2.04901 19.1781C1.67739 19.1782 1.30609 19.1565 0.937012 19.1131C3.06649 20.4823 5.54535 21.2089 8.07701 21.2061C16.647 21.2061 21.332 14.1081 21.332 7.95208C21.332 7.75208 21.327 7.55008 21.318 7.35008C22.2293 6.69105 23.0159 5.87497 23.641 4.94008L23.643 4.93708Z" fill="#010101"/>
</svg>

<svg xmlns="http://www.w3.org/2000/svg" fill="none" viewBox="0 0 24 24"><path fill="#010101" d="M23.643 4.937c-.835.37-1.732.62-2.675.733a4.67 4.67 0 0 0 2.048-2.578 9.3 9.3 0 0 1-2.958 1.13 4.66 4.66 0 0 0-7.938 4.25 13.229 13.229 0 0 1-9.602-4.868 4.66 4.66 0 0 0 1.442 6.22 4.647 4.647 0 0 1-2.11-.583v.06a4.66 4.66 0 0 0 3.737 4.568 4.693 4.693 0 0 1-2.104.08 4.661 4.661 0 0 0 4.352 3.234 9.348 9.348 0 0 1-5.786 1.995 9.5 9.5 0 0 1-1.112-.065 13.175 13.175 0 0 0 7.14 2.093c8.57 0 13.255-7.098 13.255-13.254 0-.2-.005-.402-.014-.602a9.47 9.47 0 0 0 2.323-2.41l.002-.003Z"/></svg>
